public/brands/neo4j.svg

<?xml version="1.0" encoding="UTF-8" standalone="no"?>
<svg width="256px" height="290px" viewBox="0 0 256 290" version="1.1" xmlns="http://www.w3.org/2000/svg" xmlns:xlink="http://www.w3.org/1999/xlink" preserveAspectRatio="xMidYMid">
	<g>
		<path d="M243.289302,131.52645 C243.289302,198.71355 188.831752,253.171101 121.644651,253.171101 C54.4575504,253.171101 0,198.71355 0,131.52645 C0,64.3393488 54.4575504,9.88179845 121.644651,9.88179845 C188.831752,9.82325581 243.289302,64.3393488 243.289302,131.52645" fill="#008CC1"></path>
		<path d="M53.9266977,91.6261705 C53.9266977,96.9902636 49.5657674,101.351194 44.2026667,101.351194 C38.8385736,101.351194 34.4776434,96.9902636 34.4776434,91.6261705 C34.4776434,86.2630698 38.8385736,81.9021395 44.2026667,81.9021395 C49.6243101,81.9021395 53.9266977,86.2630698 53.9266977,91.6261705" fill="#FFFFFF"></path>
		<path d="M55.5768062,118.324589 C55.5768062,123.68769 51.215876,128.049612 45.8527752,128.049612 C40.4896744,128.049612 36.1277519,123.68769 36.1277519,118.324589 C36.1277519,112.961488 40.4896744,108.600558 45.8527752,108.600558 C51.215876,108.600558 55.5768062,112.902946 55.5768062,118.324589" fill="#FFFFFF"></path>
		<path d="M61.5293023,146.614574 C61.5293023,151.977674 57.1683721,156.338605 51.8052713,156.338605 C46.4421705,156.338605 42.0802481,151.977674 42.0802481,146.614574 C42.0802481,141.250481 46.4421705,136.88955 51.8052713,136.88955 C57.1683721,136.831008 61.5293023,141.191938 61.5293023,146.614574" fill="#FFFFFF"></path>
		<path d="M74.8492403,171.956589 C74.8492403,177.31969 70.4873178,181.681612 65.1242171,181.681612 C59.7611163,181.681612 55.400186,177.31969 55.400186,171.956589 C55.400186,166.593488 59.7611163,162.232558 65.1242171,162.232558 C70.4873178,162.173023 74.8492403,166.534946 74.8492403,171.956589" fill="#FFFFFF"></path>
		<path d="M178.989643,207.37786 C178.989643,212.740961 174.628713,217.101891 169.26462,217.101891 C163.901519,217.101891 159.540589,212.740961 159.540589,207.37786 C159.540589,202.01476 163.901519,197.652837 169.26462,197.652837 C174.628713,197.652837 178.989643,202.01476 178.989643,207.37786" fill="#FFFFFF"></path>
		<path d="M196.670512,186.455318 C196.670512,191.818419 192.309581,196.179349 186.945488,196.179349 C181.582388,196.179349 177.221457,191.818419 177.221457,186.455318 C177.221457,181.092217 181.582388,176.730295 186.945488,176.730295 C192.309581,176.730295 196.670512,181.092217 196.670512,186.455318" fill="#FFFFFF"></path>
		<path d="M145.396093,38.5250233 C145.396093,43.888124 141.034171,48.2490543 135.67107,48.2490543 C130.307969,48.2490543 125.947039,43.888124 125.947039,38.5250233 C125.947039,33.1619225 130.307969,28.8009922 135.67107,28.8009922 C141.034171,28.8009922 145.396093,33.1619225 145.396093,38.5250233" fill="#FFFFFF"></path>
		<path d="M119.817922,29.5670078 C119.817922,34.9301085 115.456,39.2910388 110.092899,39.2910388 C104.729798,39.2910388 100.368868,34.9301085 100.368868,29.5670078 C100.368868,24.203907 104.729798,19.8419845 110.092899,19.8419845 C115.456,19.8419845 119.817922,24.203907 119.817922,29.5670078" fill="#FFFFFF"></path>
		<path d="M188.773209,37.6994729 C224.577488,37.6994729 253.602729,66.7257054 253.602729,102.529984 C253.602729,138.334264 224.577488,167.359504 188.773209,167.359504 C152.967938,167.359504 123.942698,138.334264 123.942698,102.529984 C123.942698,66.7257054 152.967938,37.6994729 188.773209,37.6994729" fill="#66B245"></path>
		<path d="M188.773209,169.095938 C152.067969,169.095938 122.206264,139.234233 122.206264,102.529984 C122.206264,65.8247442 152.067969,35.964031 188.773209,35.964031 C225.477457,35.964031 255.339163,65.8247442 255.339163,102.529984 C255.339163,139.234233 225.477457,169.095938 188.773209,169.095938 L188.773209,169.095938 Z M188.773209,39.4368992 C153.983008,39.4368992 125.679132,67.7407752 125.679132,102.529984 C125.679132,137.320186 153.983008,165.62307 188.773209,165.62307 C223.563411,165.62307 251.866295,137.320186 251.866295,102.529984 C251.866295,67.7407752 223.563411,39.4368992 188.773209,39.4368992 L188.773209,39.4368992 Z" fill="#FFFFFF"></path>
		<path d="M99.956093,181.681612 C129.250233,181.681612 152.998698,205.429085 152.998698,234.724217 C152.998698,264.018357 129.250233,287.766822 99.956093,287.766822 C70.6609612,287.766822 46.9134884,264.018357 46.9134884,234.724217 C46.9134884,205.429085 70.6609612,181.681612 99.956093,181.681612" fill="#66B245"></path>
		<path d="M99.956093,289.503256 C69.7500775,289.503256 45.1770543,264.92924 45.1770543,234.724217 C45.1770543,204.518202 69.7500775,179.945178 99.956093,179.945178 C130.162109,179.945178 154.735132,204.518202 154.735132,234.724217 C154.735132,264.92924 130.162109,289.503256 99.956093,289.503256 L99.956093,289.503256 Z M99.956093,183.418047 C71.6661085,183.418047 48.6499225,206.43324 48.6499225,234.724217 C48.6499225,263.014202 71.6661085,286.030388 99.956093,286.030388 C128.246078,286.030388 151.262264,263.014202 151.262264,234.724217 C151.262264,206.43324 128.246078,183.418047 99.956093,183.418047 L99.956093,183.418047 Z" fill="#FFFFFF"></path>
		<path d="M56.2842791,1.98449612 C75.8137054,1.98449612 91.6460155,17.8168062 91.6460155,37.3462326 C91.6460155,56.8756589 75.8137054,72.707969 56.2842791,72.707969 C36.7548527,72.707969 20.9225426,56.8756589 20.9225426,37.3462326 C20.9225426,17.8168062 36.7548527,1.98449612 56.2842791,1.98449612" fill="#66B245"></path>
		<path d="M56.2842791,74.4444031 C35.828093,74.4444031 19.1861085,57.8024186 19.1861085,37.3462326 C19.1861085,16.8900465 35.828093,0.248062016 56.2842791,0.248062016 C76.7404651,0.248062016 93.3824496,16.8900465 93.3824496,37.3462326 C93.3824496,57.8024186 76.7404651,74.4444031 56.2842791,74.4444031 L56.2842791,74.4444031 Z M56.2842791,3.72093023 C37.7431318,3.72093023 22.6589767,18.8050853 22.6589767,37.3462326 C22.6589767,55.8873798 37.7431318,70.9715349 56.2842791,70.9715349 C74.8254264,70.9715349 89.9095814,55.8873798 89.9095814,37.3462326 C89.9095814,18.8050853 74.8254264,3.72093023 56.2842791,3.72093023 L56.2842791,3.72093023 Z" fill="#FFFFFF"></path>
	</g>
</svg>

<svg width="256" height="290" viewBox="0 0 256 290" xmlns="http://www.w3.org/2000/svg" preserveAspectRatio="xMidYMid"><path d="M243.29 131.526c0 67.188-54.458 121.645-121.645 121.645S0 198.714 0 131.526C0 64.34 54.458 9.882 121.645 9.882c67.187-.059 121.644 54.457 121.644 121.644" fill="#008CC1"/><path d="M53.927 91.626c0 5.364-4.361 9.725-9.724 9.725-5.364 0-9.725-4.36-9.725-9.725 0-5.363 4.36-9.724 9.725-9.724a9.696 9.696 0 0 1 9.724 9.724M55.577 118.325c0 5.363-4.361 9.725-9.724 9.725s-9.725-4.362-9.725-9.725c0-5.364 4.362-9.724 9.725-9.724a9.696 9.696 0 0 1 9.724 9.724M61.53 146.615c0 5.363-4.362 9.724-9.725 9.724-5.363 0-9.725-4.361-9.725-9.724 0-5.365 4.362-9.725 9.725-9.725 5.363-.059 9.724 4.302 9.724 9.725M74.85 171.957c0 5.363-4.363 9.725-9.726 9.725s-9.724-4.362-9.724-9.725c0-5.364 4.361-9.724 9.724-9.724 5.363-.06 9.725 4.302 9.725 9.724M178.99 207.378c0 5.363-4.361 9.724-9.725 9.724-5.363 0-9.724-4.361-9.724-9.724s4.36-9.725 9.724-9.725 9.725 4.362 9.725 9.725M196.67 186.455c0 5.363-4.36 9.724-9.725 9.724-5.363 0-9.724-4.36-9.724-9.724 0-5.363 4.361-9.725 9.724-9.725 5.365 0 9.726 4.362 9.726 9.725M145.396 38.525c0 5.363-4.362 9.724-9.725 9.724-5.363 0-9.724-4.36-9.724-9.724 0-5.363 4.361-9.724 9.724-9.724s9.725 4.36 9.725 9.724M119.818 29.567c0 5.363-4.362 9.724-9.725 9.724-5.363 0-9.724-4.36-9.724-9.724 0-5.363 4.36-9.725 9.724-9.725 5.363 0 9.725 4.362 9.725 9.725" fill="#FFF"/><path d="M188.773 37.7c35.804 0 64.83 29.026 64.83 64.83s-29.026 64.83-64.83 64.83c-35.805 0-64.83-29.026-64.83-64.83s29.025-64.83 64.83-64.83" fill="#66B245"/><path d="M188.773 169.096c-36.705 0-66.567-29.862-66.567-66.566 0-36.705 29.862-66.566 66.567-66.566 36.704 0 66.566 29.86 66.566 66.566 0 36.704-29.862 66.566-66.566 66.566zm0-129.66c-34.79 0-63.094 28.305-63.094 63.094 0 34.79 28.304 63.093 63.094 63.093 34.79 0 63.093-28.303 63.093-63.093 0-34.79-28.303-63.093-63.093-63.093z" fill="#FFF"/><path d="M99.956 181.682c29.294 0 53.043 23.747 53.043 53.042 0 29.294-23.749 53.043-53.043 53.043-29.295 0-53.043-23.749-53.043-53.043 0-29.295 23.748-53.042 53.043-53.042" fill="#66B245"/><path d="M99.956 289.503c-30.206 0-54.779-24.574-54.779-54.779 0-30.206 24.573-54.779 54.78-54.779 30.205 0 54.778 24.573 54.778 54.78 0 30.204-24.573 54.778-54.779 54.778zm0-106.085c-28.29 0-51.306 23.015-51.306 51.306 0 28.29 23.016 51.306 51.306 51.306s51.306-23.016 51.306-51.306-23.016-51.306-51.306-51.306z" fill="#FFF"/><path d="M56.284 1.984c19.53 0 35.362 15.833 35.362 35.362 0 19.53-15.832 35.362-35.362 35.362S20.923 56.876 20.923 37.346 36.755 1.984 56.284 1.984" fill="#66B245"/><path d="M56.284 74.444c-20.456 0-37.098-16.642-37.098-37.098S35.828.248 56.284.248 93.382 16.89 93.382 37.346 76.74 74.444 56.284 74.444zm0-70.723c-18.54 0-33.625 15.084-33.625 33.625s15.084 33.626 33.625 33.626S89.91 55.887 89.91 37.346c0-18.54-15.085-33.625-33.626-33.625z" fill="#FFF"/></svg>
